**kern	**kern	**dynam
*part1	*part1	*part1
*staff2	*staff1	*
*I"Piano	*	*
*clefF4	*clefG2	*
*k[b-e-a-]	*k[b-e-a-]	*
=1	=1	=1
2EE- 2E-	2G 2B- 2e-	.
4r	4r	.
=	=	=
4EE- 4E-	4G 4B- 4e-	p <
2BBB- 2BB-	2B- 2d 2f	.
=	=	=
4EE- 4E-	4B- 4e- 4g	.
2FF 2F	2B- 2d 2a-	.
=	=	=
4GG 4G	4B- 4e- 4b-	.
2AA- 2A-	2c 2e- 2cc	[
=	=	=
4BB- 4B-	4B- 4d 4f	.
2EE- 2E-	2B- 2e- 2g	.
=	=	=
4GG 4G	4B- 4e- 4b-	f
2AA- 2A-	2c 2e- 2cc	.
=	=	=
4BBn 4Bn	4d 4g 4dd	.
2C 2c	2e- 2g 2ee-	.
=	=	=
*-	*-	*-
!!!system-decoration: {(s1,s2)}
